X: 100251
T: LONG ISLAND HORNPIPE
R: hornpipe, reel
B: K\"ohler's Violin Repository, v.3, 1885 p.195 #2
F: http://www.archive.org/details/klersviolinrepos03rugg
Z: 2012 John Chambers <jc:trillian.mit.edu>
M: C|
L: 1/8
K: D
(uFG) |\
A3(B AF).E.D | (FA)AB (Ac)de | f2B2 Bcde | fdec BcdB |
A3(B AF).E.D | (FA)AB (Ac)de | f2B2 BcdB | .A(FEF) D2 :||: (ufg) |
a3(a af).d.e | (fd).b.d fdd2 | g3(a ge).c.e | (gB)bB fee2 |
(fB) (aB) (bB) (aB) | gefd edBd | Acde fdec | dBAF D2 :|

%%sep 2 1 500

